icon-themes/sifr_svg/cmd/lc_hidewhitespace.svg

<svg viewBox="0 0 24 24" xmlns="http://www.w3.org/2000/svg"><path d="m11 1v3.5625l-1.28125-1.28125c-.18818-.18811-.4552437-.3121337-.71875-.28125h-1v1c0 .26529.09304.53057.28125.71875l3.28125 3.28125h.875l3.28125-3.28125c.18125-.18817.28125-.45344.28125-.71875v-1h-1c-.2653 0-.53058.0931-.71875.28125l-1.28125 1.28125v-3.5625zm-9 1v9h20v-9h-2v7h-16v-7zm0 11v9h2v-7h16v7h2v-9zm9.5625 3-3.28125 3.28125c-.18821.18818-.28125.45346-.28125.71875v1h1c.2635063.030884.53057-.09314.71875-.28125l1.28125-1.28125v3.5625h2v-3.5625l1.28125 1.28125c.18817.18815.45345.28125.71875.28125h1v-1c0-.26531-.1-.53058-.28125-.71875l-3.28125-3.28125z" fill="#555753"/></svg>

<svg xmlns="http://www.w3.org/2000/svg" viewBox="0 0 24 24">
  <path
     style="fill:#555753"
     d="M 11 1 L 11 4.5625 L 9.71875 3.28125 C 9.53057 3.09314 9.2635063 2.9691163 9 3 L 8 3 L 8 4 C 8 4.26529 8.09304 4.53057 8.28125 4.71875 L 11.5625 8 L 12.4375 8 L 15.71875 4.71875 C 15.9 4.53058 16 4.26531 16 4 L 16 3 L 15 3 C 14.7347 3 14.46942 3.0931 14.28125 3.28125 L 13 4.5625 L 13 1 L 11 1 z M 2 2 L 2 11 L 22 11 L 22 2 L 20 2 L 20 9 L 4 9 L 4 2 L 2 2 z M 2 13 L 2 22 L 4 22 L 4 15 L 20 15 L 20 22 L 22 22 L 22 13 L 2 13 z M 11.5625 16 L 8.28125 19.28125 C 8.09304 19.46943 8 19.73471 8 20 L 8 21 L 9 21 C 9.2635063 21.030884 9.53057 20.90686 9.71875 20.71875 L 11 19.4375 L 11 23 L 13 23 L 13 19.4375 L 14.28125 20.71875 C 14.46942 20.9069 14.7347 21 15 21 L 16 21 L 16 20 C 16 19.73469 15.9 19.46942 15.71875 19.28125 L 12.4375 16 L 11.5625 16 z "
     />
</svg>
